packages/icons/svg/24/Description.svg

<svg width="24" height="24" viewBox="0 0 24 24" fill="none" xmlns="http://www.w3.org/2000/svg">
<path fill-rule="evenodd" clip-rule="evenodd" d="M7 2C5.34315 2 4 3.34315 4 5V19C4 20.6569 5.34315 22 7 22H17C18.6569 22 20 20.6569 20 19V8.82843C20 8.29799 19.7893 7.78929 19.4142 7.41421L14.5858 2.58579C14.2107 2.21071 13.702 2 13.1716 2H7ZM9 18H15C15.55 18 16 17.55 16 17C16 16.45 15.55 16 15 16H9C8.45 16 8 16.45 8 17C8 17.55 8.45 18 9 18ZM15 14H9C8.45 14 8 13.55 8 13C8 12.45 8.45 12 9 12H15C15.55 12 16 12.45 16 13C16 13.55 15.55 14 15 14ZM13 3.5V8C13 8.55 13.45 9 14 9H18.5L13 3.5Z" fill="#858585"/>
</svg>

<svg width="24" height="24" fill="none" xmlns="http://www.w3.org/2000/svg" viewBox="0 0 24 24"><path fill-rule="evenodd" clip-rule="evenodd" d="M7 2a3 3 0 00-3 3v14a3 3 0 003 3h10a3 3 0 003-3V8.828a2 2 0 00-.586-1.414l-4.828-4.828A2 2 0 0013.172 2H7zm2 16h6c.55 0 1-.45 1-1s-.45-1-1-1H9c-.55 0-1 .45-1 1s.45 1 1 1zm6-4H9c-.55 0-1-.45-1-1s.45-1 1-1h6c.55 0 1 .45 1 1s-.45 1-1 1zM13 3.5V8c0 .55.45 1 1 1h4.5L13 3.5z" fill="currentColor"></path></svg>
